X:1
T:Title
%%score { ( 1 3 ) | ( 2 4 ) }
L:1/8
M:4/4
K:Ab
V:1 treble nm="Grand Piano"
V:3 treble 
V:2 bass 
V:4 bass 
V:1
 z4 z2[Q:1/4=108] c>B | A>B [_CA]2[K:bass] [E,=CE]2 z2 | A>B [_CA]2[K:bass] [E,=CE]2 C,>=D, | %3
 A2 A2 G2 G2 | A2 A2 A2 c>B | A>B [_CA]2[K:bass] [E,=CE]2 z2 | A>B [_CA]2[K:bass] [E,=CE]2 E,>F, | %7
 G2 G2 A2 A2 | G2 G2 G2 F>E | D>E G>B d2 c>B | A2 c2 E2[K:bass] F,>E, | %11
 [B,EG]2 [B,EG]2 [EGB]2 [EGB]2 | c2 A2 A2 [CE]>[CE] | F>F F>F [=EG]2 G>G | A>A A>A B2 B>B | %15
 c>c c>c [A=d]2 [Ad]>[Ad] |[M:7/8] [Ge]3 E E3 |[M:1/4] A2 |[M:4/4] A4 E2 A2 | B4 E4 | %20
 c2 B2 c2 [Fd]2 | c4 B2 A2 | A4 z4 | z4 B2 z2 | [EG]4 [=DF]3 E | E6 z2 | z4 d2 z2 | d4 z4 | %28
 B2 c2 A2 B2 | G4 E2 A2 | A2 G2 A2 B2 | A4 E2 c2 | c2 B2 c2 d2 | c4 B2 c2 | d2 c2 B2 z =D | %35
 z4 [EA]2 z2 | [Ec]4 [EB]3 [CA] |[M:3/4] [CA]6 |] %38
V:2
 z8 | [A,,E,]2 z z/ F/ A,,2[K:treble] c>B | [A,,E,]2 z z/ F/ A,,2 z2 | %3
 [E,CE]2 [A,CE]2 [E,DE]2 [B,DE]2 | [CE]2[K:treble] [DF]2 [CE]2 z2 | %5
 [A,,E,]2 z z/ F/ A,,2[K:treble] c>B | [A,,E,]2 z z/ F/ A,,2 z2 | %7
 [G,B,E]2 [B,E]2 [F,B,=D]2 [B,DF]2 | [B,E]2 [B,E]2 [B,E]2 z2 | E,,2 [E,G,D]2 [E,G,D]2 [E,G,D]2 | %10
 A,,2 [E,A,C]2 [E,A,C]2 z2 | D,>E, G,>B, D2[K:treble] C>B, | %12
 [A,EA]2 [CE]2[K:bass] [E,CE]2 [A,,A,]>[A,,A,] | %13
 [D,A,D]>[D,A,D] [D,A,D]>[D,A,D] [C,C]2 [C,=E,C]>[C,E,C] | %14
 [F,C]>[F,C] [F,C]>[F,C] [E,G,E]2 [E,G,E]>[E,G,E] | [A,E]>[A,E] [A,E]>[A,E] [F,B,]2 [F,B,]>[F,B,] | %16
[M:7/8] [E,B,]3 E, E,3 |[M:1/4][K:treble] [A,CE]2 |[M:4/4] [A,CE]4 C2 [A,CE]2 | %19
 [G,B,E]4[K:bass] [G,B,]4 | [A,E]2 [G,B,E]2 [A,E]2 [D,A,]2 | [E,A,E]4 [E,G,E]2 [F,A,C]2 | %22
 C2 z2 [E,B,E]2 [B,,B,]2 | [E,B,]2 z2 z4 | [B,,B,]4 [B,,A,]3 [D,G,] | [E,G,]6 z2 | %26
 [CE]4 .[B,DF]2 [A,EA]2 | A2 z2 [A,EA]4 | z4 F4 | [E,B,E]4 [E,G,]2[K:treble] [CE]2 | E8- | E4 z4 | %32
 [A,E]2 [G,E]2 [A,E]2 [B,E]2 | [A,E]4 [G,E]2 [A,EA]2 | [B,EG]2 [A,EA]2[K:bass] [G,B,E]2 .[F,B,E]2 | %35
 E,2 D,2 C,2 D,2 | [E,A,]4 [E,G,]3 [A,,A,] |[M:3/4] [A,,A,]6 |] %38
V:3
 x8 | C2 z2[K:bass] z4 | C2 z2[K:bass] z4 | x8 | x8 | C2 z2[K:bass] z4 | C2 z2[K:bass] z4 | x8 | %8
 x8 | x8 | x6[K:bass] x2 | x8 | x8 | x8 | x8 | x8 |[M:7/8] x7 |[M:1/4] x2 |[M:4/4] x8 | x8 | x8 | %21
 x8 | z2 =D2 G2 [DF]2 | G2 A2 E2- [Ec]2 | x8 | x8 | e4 z G c2 | z2 G2 c4 | x8 | x8 | x8 | x8 | x8 | %33
 x8 | z4 z2 A2 | [B,EG]4 A,2- [A,Fd]2 | x8 |[M:3/4] x6 |] %38
V:4
 x8 | z2 [A,,=D,]2 z4[K:treble] | z2 [A,,=D,]2 z4 | x8 | A,6[K:treble] z2 | %5
 z2 [A,,=D,]2 z4[K:treble] | z2 [A,,=D,]2 z4 | x8 | E,6 z2 | x8 | x8 | x6[K:treble] x2 | %12
 x4[K:bass] x4 | x8 | x8 | x8 |[M:7/8] x7 |[M:1/4][K:treble] x2 |[M:4/4] x8 | x4[K:bass] x4 | x8 | %21
 x8 | [F,A,]4 z4 | E2- [C,A,E]2 [G,,G,]2 [A,,F,]2 | x8 | x8 | x8 | [B,D]4 z4 | %28
 [G,E]2 A,2 [F,C]2 [D,D]2 | x6[K:treble] x2 | C2 B,2 C2 D2 | C6 [A,E]2 | x8 | x8 | x4[K:bass] x4 | %35
 x8 | x8 |[M:3/4] x6 |] %38

